X:267
T: KUMMT A VOGERL GEFLOGEN
N: Z0265
O: Europa, Mitteleuropa, Tirol
R: lyrisches Lied, Romanze
M: 6/8
L: 1/16
K: F
AB | c2A2A2A2G2GA | B2G2G2G2A2
AB | c2A2A2AGd2dd | dEE2E2F4
AB | cfc2AFEdc2BG | Edc2BGA4
AB | cfc2AFEdc2BG | Edc2BGF4

@@@ Tune index: 10025
